!! 00000] TT[WS
!!!OTL: Dui Hua
!!!ARE: Asia, China,ÿShanxi Qixian
!! Ethnic Group: Han
!! WI, 165
!!!SCT: J0199
!!!YEM: Copyright 1995, estate of Helmut Schaffrath.
**kern
*ICvox
*Ivox
*M2/4
*k[f#]
*G:
{8.dd
16gg
16ee
16dd
8cc
=1
16dd
16ee
16dd
16cc
4a}
=2
{8.dd
16gg
16ee
16dd
8cc
=3
16dd
16ee
16dd
16cc
4a}
=4
{16dd
16b
16dd
16dd
16g
16b
8a
=5
16dd
16b
16dd
16dd
16g
16b
8a}
=6
{16dd
16b
16dd
16dd
16g
16b
8a
=7
8dd
16f#
16e
8dd
16f#
16e}
=8
{16g
16e
8dd
16b
16a
8g
=9
16a
16b
16g
16e
4d}
=10
{16e
16a
16g
16e
4dd
=11
16dd
16gg
16ee
16dd
16gg
16ee
8dd}
=12
{16dd
16gg
16ee
16dd
16gg
16ee
8dd
=13
16b
16dd
16b
16dd
16g
16e
8d}
=14
{8b
16a
16g
16a
16b
16g
16e
=15
2d}
==
!!!AGN: Xiaodiao, Duihua. Qingge
!!!ONB: ESAC (Essen Associative Code) Database: CHINA
!!!AMT: simple duple
!!!AIN: vox
!!!EED: Helmut Schaffrath
!!!EEV: 1.0
*-
